src/resources/icon__advantages--4.svg

<svg width="74" height="74" viewBox="0 0 74 74" fill="none" xmlns="http://www.w3.org/2000/svg">
<g clip-path="url(#clip0)">
<path d="M36.8836 73.7673C16.5438 73.7673 0 57.2199 0 36.8836C0 16.5438 16.5438 0 36.8836 0C57.2199 0 73.7673 16.5438 73.7673 36.8836C73.7673 57.2199 57.2199 73.7673 36.8836 73.7673ZM36.8836 1.41249C17.3242 1.41249 1.41249 17.3242 1.41249 36.8836C1.41249 56.4431 17.3242 72.3548 36.8836 72.3548C56.4431 72.3548 72.3548 56.4431 72.3548 36.8836C72.3548 17.3242 56.4431 1.41249 36.8836 1.41249Z" fill="#45C8DA"/>
<path d="M14.66 36.4948H12.9282C12.9282 23.2854 23.6741 12.5396 36.8835 12.5396C45.6767 12.5396 53.747 17.3453 57.9466 25.0779L56.4226 25.9048C52.5261 18.7308 45.036 14.2714 36.8792 14.2714C24.6266 14.2714 14.66 24.2423 14.66 36.4948Z" fill="black"/>
<path d="M36.8832 60.4544C32.6619 60.4544 28.5099 59.3417 24.8774 57.2332L25.7477 55.7352C29.116 57.6878 32.965 58.7226 36.8832 58.7226C49.1358 58.7226 59.1066 48.7517 59.1066 36.4991H60.8385C60.8385 49.7085 50.0926 60.4544 36.8832 60.4544Z" fill="black"/>
<path d="M49.5043 48.033L48.2271 46.864C50.8205 44.0282 52.2492 40.3438 52.2492 36.4992C52.2492 33.2996 51.2405 30.1694 49.3961 27.576L36.3166 40.6512C35.9789 40.9889 35.429 40.9889 35.0913 40.6512L29.6621 35.2219L30.8874 33.9967L35.7061 38.8155L48.8506 25.6753C48.9198 25.6017 49.0021 25.5368 49.0974 25.4892C49.474 25.2987 49.9329 25.4112 50.1841 25.7489C52.6346 28.7796 53.9854 32.5939 53.9854 36.4992C53.9811 40.7811 52.3921 44.8768 49.5043 48.033Z" fill="black"/>
<path d="M36.8834 53.5964C27.4537 53.5964 19.7817 45.9245 19.7817 36.4948C19.7817 27.0651 27.4537 19.3932 36.8834 19.3932V21.125C28.4105 21.125 21.5135 28.0176 21.5135 36.4948C21.5135 44.9677 28.4062 51.8646 36.8834 51.8646C38.6411 51.8646 40.3686 51.5702 42.0095 50.99L42.5853 52.6223C40.7583 53.2717 38.8403 53.5964 36.8834 53.5964Z" fill="black"/>
<path d="M36.8832 47.1021C31.034 47.1021 26.2759 42.344 26.2759 36.4948C26.2759 30.6456 31.034 25.8875 36.8832 25.8875C39.1389 25.8875 41.2907 26.5845 43.1091 27.9093L42.0916 29.3121C40.572 28.2081 38.7709 27.6236 36.8832 27.6236C31.9908 27.6236 28.0077 31.6024 28.0077 36.4991C28.0077 41.3915 31.9865 45.3746 36.8832 45.3746C41.7756 45.3746 45.7587 41.3958 45.7587 36.4991C45.7587 35.4167 45.5639 34.356 45.1829 33.3515L46.8021 32.7368C47.2568 33.936 47.4862 35.2003 47.4862 36.4948C47.4862 42.3483 42.7324 47.1021 36.8832 47.1021Z" fill="black"/>
</g>
<defs>
<clipPath id="clip0">
<rect width="73.7673" height="73.7673" fill="white"/>
</clipPath>
</defs>
</svg>

<svg width="74" height="74" fill="none" xmlns="http://www.w3.org/2000/svg"><g clip-path="url(#a)"><path d="M36.884 73.767C16.544 73.767 0 57.22 0 36.884 0 16.544 16.544 0 36.884 0 57.22 0 73.767 16.544 73.767 36.884c0 20.336-16.547 36.883-36.883 36.883zm0-72.355c-19.56 0-35.472 15.912-35.472 35.472 0 19.56 15.912 35.47 35.472 35.47 19.56 0 35.47-15.91 35.47-35.47S56.445 1.412 36.885 1.412z" fill="#45C8DA"/><path d="M14.66 36.495h-1.732c0-13.21 10.746-23.955 23.955-23.955a23.955 23.955 0 0 1 21.064 12.538l-1.524.827A22.23 22.23 0 0 0 36.879 14.27c-12.252 0-22.219 9.971-22.219 22.224zM36.883 60.454a23.939 23.939 0 0 1-12.006-3.22l.87-1.499a22.224 22.224 0 0 0 11.136 2.988c12.253 0 22.224-9.971 22.224-22.224h1.732c0 13.21-10.746 23.955-23.956 23.955z" fill="#000"/><path d="m49.504 48.033-1.277-1.169a15.328 15.328 0 0 0 4.022-10.365c0-3.2-1.009-6.33-2.853-8.923l-13.08 13.075a.868.868 0 0 1-1.225 0l-5.429-5.43 1.225-1.224 4.82 4.819 13.144-13.14a.868.868 0 0 1 1.334.074 17.145 17.145 0 0 1 3.8 10.75 17.068 17.068 0 0 1-4.48 11.533z" fill="#000"/><path d="M36.883 53.596c-9.43 0-17.101-7.671-17.101-17.101s7.672-17.102 17.101-17.102v1.732c-8.473 0-15.37 6.893-15.37 15.37 0 8.473 6.893 15.37 15.37 15.37 1.758 0 3.486-.295 5.127-.875l.575 1.632c-1.827.65-3.745.974-5.702.974z" fill="#000"/><path d="M36.883 47.102c-5.849 0-10.607-4.758-10.607-10.607 0-5.85 4.758-10.607 10.607-10.607a10.5 10.5 0 0 1 6.226 2.021l-1.017 1.403a8.805 8.805 0 0 0-5.209-1.688c-4.892 0-8.875 3.978-8.875 8.875 0 4.892 3.979 8.876 8.875 8.876 4.893 0 8.876-3.98 8.876-8.876a8.851 8.851 0 0 0-.576-3.148l1.62-.614c.454 1.199.683 2.463.683 3.758 0 5.853-4.754 10.607-10.603 10.607z" fill="#000"/></g><defs><clipPath id="a"><path fill="#fff" d="M0 0h73.767v73.767H0z"/></clipPath></defs></svg>
